packages/kaspersky-hexa-ui-icons/src/iconsSVGs/24/ClearSolid.svg

<svg width="24" height="24" viewBox="0 0 24 24" fill="none" xmlns="http://www.w3.org/2000/svg">
<path fill-rule="evenodd" clip-rule="evenodd" d="M12 22C17.5228 22 22 17.5228 22 12C22 6.47715 17.5228 2 12 2C6.47715 2 2 6.47715 2 12C2 17.5228 6.47715 22 12 22ZM8.51787 8.51793C8.90839 8.12741 9.54156 8.12741 9.93208 8.51793L12 10.5858L14.0679 8.51793C14.4584 8.12741 15.0916 8.12741 15.4821 8.51793C15.8727 8.90845 15.8727 9.54162 15.4821 9.93214L13.4142 12.0001L15.482 14.0679C15.8725 14.4584 15.8725 15.0915 15.482 15.4821C15.0915 15.8726 14.4583 15.8726 14.0678 15.4821L12 13.4143L9.9322 15.4821C9.54168 15.8726 8.90851 15.8726 8.51799 15.4821C8.12747 15.0915 8.12747 14.4584 8.51799 14.0679L10.5858 12.0001L8.51787 9.93214C8.12734 9.54162 8.12734 8.90845 8.51787 8.51793Z" fill="black"/>
</svg>

<svg xmlns="http://www.w3.org/2000/svg" width="24" height="24" fill="none" viewBox="0 0 24 24"><path fill="#000" fill-rule="evenodd" d="M12 22c5.5228 0 10-4.4772 10-10S17.5228 2 12 2 2 6.4772 2 12s4.4772 10 10 10M8.5179 8.518c.3905-.3906 1.0237-.3906 1.4142 0L12 10.5857l2.0679-2.0679c.3905-.3905 1.0237-.3905 1.4142 0 .3906.3906.3906 1.0237 0 1.4142L13.4142 12l2.0678 2.0678c.3905.3905.3905 1.0236 0 1.4142s-1.0237.3905-1.4142 0L12 13.4143l-2.0678 2.0678c-.3905.3905-1.0237.3905-1.4142 0s-.3905-1.0237 0-1.4142l2.0678-2.0678-2.068-2.068c-.3905-.3905-.3905-1.0236 0-1.4142"/></svg>
